shared/images/iconfont/kb-iconfont-attachment-16.svg

<?xml version="1.0" encoding="UTF-8"?>
<svg width="16px" height="16px" viewBox="0 0 16 16" version="1.1" xmlns="http://www.w3.org/2000/svg" xmlns:xlink="http://www.w3.org/1999/xlink">
    <!-- Generator: sketchtool 41.2 (35397) - http://www.bohemiancoding.com/sketch -->
    <title>BAF4AB4D-BAAE-419C-A34D-2CE1EF1CE8F9</title>
    <desc>Created with sketchtool.</desc>
    <defs></defs>
    <g id="Icons" stroke="none" stroke-width="1" fill="none" fill-rule="evenodd">
        <g id="Style-guide---Desktop---Icons-2" transform="translate(-431.000000, -1146.000000)">
            <g id="kb-iconfont-attachment-16" transform="translate(431.000000, 1146.000000)">
                <g id="kb-iconfont-attachment">
                    <rect id="icon-area" x="0" y="0" width="16" height="16"></rect>
                    <path d="M2.21971986,14.8307908 C1.47486954,14.105737 1.01510574,13.1061872 1.01510574,12.0010004 C1.01510574,10.8958135 1.47569349,9.89626369 2.22054381,9.17120992 L7.48558088,3.90616716 C7.92804175,3.49562347 8.52952486,3.24273496 9.19198023,3.24273496 C10.5572645,3.24273496 11.6638286,4.31751113 11.6638286,5.64357525 C11.6638286,6.28700045 11.4026366,6.8720052 10.9783027,7.30255589 L5.71408954,12.5667984 C5.56248283,12.7300555 5.34413623,12.8324914 5.10024718,12.8324914 C4.64542708,12.8324914 4.27629772,12.4739659 4.27629772,12.0322113 C4.27629772,11.7953284 4.3825872,11.5816536 4.55149684,11.4352023 L9.81735787,6.16935928 C9.94754188,6.02850998 10.027465,5.84044416 10.027465,5.63477217 C10.027465,5.19301756 9.65833562,4.83449207 9.20351552,4.83449207 C8.99258445,4.83449207 8.80060423,4.91131896 8.65476517,5.03776322 L3.38231255,10.3020057 C2.93573194,10.7365578 2.65970887,11.3367679 2.65970887,11.9993998 C2.65970887,13.3262642 3.76709695,14.4018406 5.13320516,14.4018406 C5.81708322,14.4018406 6.43586927,14.1321463 6.88409778,13.6967939 L12.1491349,8.43175111 C12.8725625,7.71149902 13.3191431,6.72555394 13.3191431,5.63797329 C13.3191431,3.42839994 11.4743202,1.6365728 9.19939577,1.6365728 C8.0804724,1.6365728 7.06536666,2.07032461 6.32298819,2.77377082 L1.43779182,7.53783824 C1.28618511,7.70109538 1.06783851,7.80353124 0.823949464,7.80353124 C0.36912936,7.80353124 0,7.44500575 0,7.00325114 C0,6.76636823 0.106289481,6.55269344 0.275199121,6.40624218 L5.1538039,1.6405742 C6.19774787,0.626619317 7.63965943,0 9.23235375,0 C12.4177424,0 15,2.50807783 15,5.60196069 C15,7.14890212 14.3540236,8.54939229 13.3109036,9.56334717 L8.04586652,14.8291902 C7.30019225,15.5526434 6.27107937,16 5.13402911,16 C3.99697885,16 2.96621807,15.5518431 2.22054381,14.8283899 L2.21971986,14.8307908 Z" id="Page-1" fill="#000000"></path>
                </g>
            </g>
        </g>
    </g>
</svg>

<svg xmlns="http://www.w3.org/2000/svg" width="16" height="16" viewBox="0 0 16 16">
    <g fill="none" fill-rule="evenodd">
        <path d="M0 0h16v16H0z"/>
        <path fill="#000" d="M2.22 14.83a3.935 3.935 0 0 1-1.205-2.829c0-1.105.46-2.105 1.206-2.83l5.265-5.265a2.502 2.502 0 0 1 1.706-.663c1.365 0 2.472 1.075 2.472 2.4 0 .644-.261 1.229-.686 1.66l-5.264 5.264a.834.834 0 0 1-.614.265.813.813 0 0 1-.824-.8c0-.237.107-.45.275-.597L9.817 6.17c.13-.14.21-.329.21-.534 0-.442-.369-.8-.823-.8a.835.835 0 0 0-.55.203l-5.272 5.264a2.361 2.361 0 0 0-.722 1.697c0 1.327 1.107 2.403 2.473 2.403.684 0 1.303-.27 1.751-.705l5.265-5.265a3.93 3.93 0 0 0 1.17-2.794c0-2.21-1.845-4.001-4.12-4.001a4.17 4.17 0 0 0-2.876 1.137L1.438 7.538a.834.834 0 0 1-.614.266.813.813 0 0 1-.824-.8c0-.238.106-.451.275-.598l4.879-4.765A5.836 5.836 0 0 1 9.232 0C12.418 0 15 2.508 15 5.602a5.508 5.508 0 0 1-1.69 3.961L8.047 14.83A4.169 4.169 0 0 1 5.134 16a4.174 4.174 0 0 1-2.913-1.172l-.001.003z"/>
    </g>
</svg>
